public/svg/feature_icon_6.svg

<svg width="32" height="33" viewBox="0 0 32 33" fill="none" xmlns="http://www.w3.org/2000/svg">
<path d="M27 17.0049V7.00488C27 6.47445 26.7893 5.96574 26.4142 5.59067C26.0391 5.2156 25.5304 5.00488 25 5.00488H21" stroke="#111B29" stroke-width="2" stroke-linecap="round" stroke-linejoin="round"/>
<path d="M5 25.0049V29.0049C5 29.5353 5.21071 30.044 5.58579 30.4191C5.96086 30.7942 6.46957 31.0049 7 31.0049H25C25.5304 31.0049 26.0391 30.7942 26.4142 30.4191C26.7893 30.044 27 29.5353 27 29.0049V25.0049" stroke="#111B29" stroke-width="2" stroke-linecap="round" stroke-linejoin="round"/>
<path d="M11 5.00488H7C6.46957 5.00488 5.96086 5.2156 5.58579 5.59067C5.21071 5.96574 5 6.47445 5 7.00488V17.0049" stroke="#111B29" stroke-width="2" stroke-linecap="round" stroke-linejoin="round"/>
<path d="M1 21.005H8.69067C8.78358 21.0051 8.87468 20.9793 8.95379 20.9305C9.0329 20.8818 9.0969 20.812 9.13867 20.729L11.48 16.045C11.5236 15.9575 11.5919 15.8847 11.6765 15.8356C11.7611 15.7865 11.8582 15.7633 11.9558 15.7689C12.0534 15.7744 12.1473 15.8084 12.2258 15.8668C12.3042 15.9251 12.3639 16.0051 12.3973 16.097L15.576 24.841C15.6089 24.9367 15.6701 25.0202 15.7515 25.0803C15.8328 25.1405 15.9305 25.1746 16.0317 25.178C16.1328 25.1815 16.2326 25.1542 16.3179 25.0998C16.4032 25.0453 16.4699 24.9662 16.5093 24.873L19.576 17.973C19.6146 17.8865 19.6769 17.8127 19.7558 17.7602C19.8347 17.7077 19.9269 17.6787 20.0217 17.6766C20.1164 17.6745 20.2098 17.6994 20.2909 17.7483C20.3721 17.7973 20.4376 17.8683 20.48 17.953L21.8667 20.729C21.9084 20.812 21.9724 20.8818 22.0515 20.9305C22.1307 20.9793 22.2218 21.0051 22.3147 21.005H31" stroke="#111B29" stroke-width="2" stroke-linecap="round" stroke-linejoin="round"/>
<path d="M18.94 3.00479C18.7385 2.39426 18.3411 1.8673 17.8095 1.50568C17.2779 1.14406 16.6419 0.967989 16 1.00479C15.3592 0.969496 14.7247 1.14627 14.1945 1.50779C13.6642 1.8693 13.2679 2.39542 13.0667 3.00479H12C11.7348 3.00479 11.4804 3.11015 11.2929 3.29768C11.1054 3.48522 11 3.73957 11 4.00479V8.00479C11 8.27001 11.1054 8.52436 11.2929 8.7119C11.4804 8.89943 11.7348 9.00479 12 9.00479H20C20.2652 9.00479 20.5196 8.89943 20.7071 8.7119C20.8946 8.52436 21 8.27001 21 8.00479V4.00479C21 3.73957 20.8946 3.48522 20.7071 3.29768C20.5196 3.11015 20.2652 3.00479 20 3.00479H18.94Z" stroke="#111B29" stroke-width="2" stroke-linecap="round" stroke-linejoin="round"/>
</svg>

<svg xmlns="http://www.w3.org/2000/svg" width="32" height="33" fill="none"  stroke="#111b29" stroke-width="2" xmlns:v="https://vecta.io/nano"><path d="M27 17.005v-10a2 2 0 0 0-2-2h-4m-16 20v4a2 2 0 0 0 2 2h18a2 2 0 0 0 2-2v-4m-16-20H7a2 2 0 0 0-2 2v10m-4 4h7.691a.5.5 0 0 0 .448-.276l2.341-4.684a.5.5 0 0 1 .917.052l3.179 8.744a.5.5 0 0 0 .934.032l3.067-6.9a.5.5 0 0 1 .904-.02l1.387 2.776a.5.5 0 0 0 .448.276H31" stroke-linecap="round" stroke-linejoin="round"/><path d="M18.94 3.005a2.92 2.92 0 0 0-2.94-2 2.92 2.92 0 0 0-2.933 2H12a1 1 0 0 0-1 1v4a1 1 0 0 0 1 1h8a1 1 0 0 0 1-1v-4a1 1 0 0 0-1-1h-1.06z" stroke-linejoin="round"/></svg>
